X: 75
T:Green Fields of America, The
M:C|
L:1/8
R:reel
K:G
AB|c2 ec B2 dB|AGAB AGEF|GAGE DEGB|AGAB AGEG|c2 ec B2 dB|AGAB AGEF|GAGE
DEGA|BGAF G2 :|:(3DEF|GABc d2 ef|gage dBGB|c2 ec B2 dB|AGBG AG E2 |gfgd
efge|dcBG AGEF|GAGE DEGA|BGAF G2 :|
